package/converter/svg/regular/union.svg

<svg xmlns="http://www.w3.org/2000/svg" viewBox="0 0 384 512"><!-- Font Awesome Pro 6.0.0-alpha2 by @fontawesome - https://fontawesome.com License - https://fontawesome.com/license (Commercial License) --><path d="M0 288V56C0 42.75 10.75 32 24 32S48 42.75 48 56V288C48 367.406 112.594 432 192 432S336 367.406 336 288V56C336 42.75 346.75 32 360 32S384 42.75 384 56V288C384 393.875 297.875 480 192 480S0 393.875 0 288Z"/></svg>

<svg xmlns="http://www.w3.org/2000/svg" viewBox="0 0 384 512"><!--! Font Awesome Pro 6.6.0 by @fontawesome - https://fontawesome.com License - https://fontawesome.com/license (Commercial License) Copyright 2024 Fonticons, Inc. --><path d="M24 32c13.3 0 24 10.7 24 24l0 232c0 79.5 64.5 144 144 144s144-64.5 144-144l0-232c0-13.3 10.7-24 24-24s24 10.7 24 24l0 232c0 106-86 192-192 192S0 394 0 288L0 56C0 42.7 10.7 32 24 32z"/></svg>
